X: 27
T:Miss Mc Leods Reel
M:4/4
L:1/8
Q:150     %Tempo
C:Scottish Traditional
K:G
G2 BG dGBG |GBBA BcBA |G2 BG dGBG |AF F2 DFAF |
G2 BG dGBG |GBBA Bc d2 |eBBA Bdef |g2 eg dBAF ||
g2 fg egge |dBBA Bdef |g2 fg efge |a2 ag a2 ba |
g2 fg egge |dBBA Bc d2 |eBBA Bdef |g2 eg dBAF ||
%  ABC2Win Version 2.1 24/06/2002
